3dlsample2.3dl
#filename:  LG0_05112022_035205PM.3dl
#created:   05/11/2022 03:52:05 PM
#owner:     CalMAN 5 (22.2.15.847, 05/11/2022 03:52:05 PM, LG, 6)
#title:     17x17x17 3D LUT
0 256 512 768 1023
0 0 0
2 57 1210
9 284 2238
8 488 3167
234 595 4095
91 1048 81
78 1022 1075
8 1020 2175
9 1048 3144
189 1068 4095
7 2150 70
20 2104 1092
30 2062 2173
17 2067 3123
42 2079 4083
243 3121 455
252 3100 1190
253 3069 2236
227 3061 3155
23 3088 4083
188 4028 645
210 4003 1297
16 4001 2338
129 4001 3275
695 3976 4095
1124 2 137
1126 23 1030
1036 299 2142
895 494 3098
596 602 4087
1030 1044 73
1024 1024 1024
975 1021 2111
844 1044 3086
554 1071 4079
955 2126 75
932 2081 1051
891 2054 2132
734 2049 3071
383 2074 4075
835 3096 452
829 3086 1160
789 3065 2215
640 3055 3139
23 3089 4083
648 4027 645
653 4004 1287
537 4000 2330
129 4001 3275
697 3976 4095
2257 24 193
2238 4 1032
2184 288 2053
2115 503 3044
2098 631 4019
2168 1071 6
2141 1043 968
2125 1036 2053
2078 1081 3030
2065 1104 4014
2102 2136 190
2069 2081 1004
2048 2048 2048
2030 2056 3024
2002 2056 4000
2053 3095 452
2023 3066 1092
2005 3051 2143
1978 3039 3069
1932 3060 4010
1951 4021 619
1942 4007 1212
1913 4000 2247
1888 3998 3196
1856 3998 4091
3240 10 99
3224 23 899
3205 351 1999
3176 544 3025
3146 653 3979
3195 1123 95
3192 1097 921
3174 1087 1992
3147 1118 3014
3112 1142 3973
3167 2193 299
3153 2154 968
3133 2130 2015
3111 2126 3012
3092 2125 3963
3131 3117 475
3098 3108 1037
3081 3075 2100
3072 3072 3072
3041 3070 3973
3084 4026 595
3069 4013 1136
3052 4006 2176
3031 4002 3164
3012 3994 4052
4095 418 388
4090 363 836
4094 456 1924
4094 621 3004
4092 649 3978
4090 1182 241
4095 1162 884
4095 1139 1918
4095 1197 2999
4093 1178 3977
4094 2266 335
4091 2236 892
4095 2202 1948
4094 2189 2991
4095 2204 3965
4095 3231 438
4086 3204 947
4094 3188 2026
4095 3179 3043
4077 3174 3978
4095 4088 556
4095 4082 1184
4089 4069 2114
4083 4070 3168
4095 4095 4095
