3dlsample2.3dl
#filename:  LG0_05112022_035205PM.3dl
#created:   05/11/2022 03:52:05 PM
#owner:     CalMAN 5 (22.2.15.847, 05/11/2022 03:52:05 PM, LG, 6)
#title:     17x17x17 3D LUT
0 64 128 192 256 320 384 448 512 576 640 704 768 832 896 960 1023
0 0 0
0 0 256
27 11 847
1 62 987
2 57 1210
57 71 1460
51 153 1723
5 226 1982
9 284 2238
7 343 2483
3 402 2714
6 456 2941
8 488 3167
12 498 3394
119 510 3627
119 550 3867
234 595 4095
0 256 0
0 256 256
1 261 662
1 257 920
33 240 1164
51 249 1433
34 276 1706
4 310 1973
10 351 2231
8 397 2477
4 446 2710
7 492 2938
8 521 3165
12 530 3392
127 539 3624
127 578 3866
225 621 4095
50 548 38
9 540 277
6 520 510
2 516 814
9 511 1098
37 509 1380
12 513 1666
5 525 1949
9 540 2209
9 563 2458
6 590 2696
8 620 2926
9 641 3158
12 646 3386
115 655 3622
116 682 3864
225 720 4095
70 800 41
58 801 0
2 792 466
82 781 815
4 771 1083
4 776 1370
9 774 1654
5 771 1929
3 771 2183
9 779 2433
11 793 2675
9 811 2912
10 824 3148
14 826 3382
93 831 3622
106 849 3863
267 880 4095
91 1048 81
91 1048 81
76 1039 472
41 1031 780
78 1022 1075
6 1017 1346
7 1015 1625
5 1019 1909
8 1020 2175
9 1020 2419
11 1027 2661
11 1039 2903
9 1048 3144
11 1044 3379
104 1041 3623
59 1054 3862
189 1068 4095
49 1334 98
49 1335 97
3 1316 475
2 1296 777
7 1285 1057
40 1277 1331
6 1277 1617
7 1276 1896
9 1278 2160
10 1279 2415
11 1282 2657
11 1287 2898
12 1289 3139
13 1288 3377
16 1286 3616
6 1285 3854
16 1289 4088
66 1638 52
66 1639 52
2 1595 496
3 1573 784
5 1553 1067
6 1547 1331
4 1546 1606
6 1541 1895
10 1538 2165
11 1537 2410
11 1541 2654
12 1547 2896
11 1552 3138
12 1546 3377
17 1540 3620
11 1538 3852
6 1539 4082
31 1898 46
1 1895 157
0 1868 523
3 1849 797
4 1830 1073
5 1815 1345
3 1810 1617
6 1807 1893
12 1803 2161
14 1801 2416
13 1801 2651
12 1803 2888
13 1804 3127
12 1805 3367
7 1807 3608
14 1808 3848
34 1810 4082
7 2150 70
7 2145 256
13 2124 569
13 2112 819
20 2104 1092
14 2084 1358
13 2073 1627
13 2066 1905
30 2062 2173
30 2063 2423
30 2063 2664
28 2063 2890
17 2067 3123
14 2064 3359
15 2063 3598
27 2070 3842
42 2079 4083
103 2390 187
89 2387 321
70 2373 567
58 2360 839
75 2351 1108
97 2341 1388
101 2329 1655
90 2323 1926
96 2321 2195
92 2319 2440
59 2317 2667
45 2318 2896
36 2318 3126
18 2321 3359
19 2324 3599
33 2330 3841
13 2338 4081
144 2630 290
145 2627 377
147 2615 595
147 2607 853
156 2595 1130
153 2589 1412
158 2581 1685
155 2576 1955
164 2574 2213
162 2573 2461
149 2570 2687
102 2569 2902
42 2571 3123
29 2570 3358
14 2576 3599
34 2583 3839
13 2593 4079
195 2878 369
195 2876 436
196 2869 632
202 2860 886
198 2847 1159
201 2835 1441
208 2828 1708
210 2823 1968
216 2822 2221
221 2821 2460
220 2819 2696
196 2816 2921
143 2816 3143
60 2820 3370
27 2824 3603
34 2833 3842
47 2844 4079
243 3121 455
240 3117 509
248 3113 681
253 3109 921
252 3100 1190
258 3082 1475
241 3076 1734
261 3068 1992
253 3069 2236
255 3069 2472
256 3067 2703
258 3062 2929
227 3061 3155
165 3064 3387
59 3070 3617
62 3076 3848
23 3088 4083
265 3374 508
258 3370 553
266 3357 716
298 3346 951
306 3344 1213
301 3334 1492
219 3328 1763
198 3323 2016
197 3321 2263
209 3322 2501
200 3322 2739
212 3318 2968
222 3310 3189
194 3307 3413
147 3308 3637
64 3314 3863
19 3323 4089
157 3611 546
136 3608 586
190 3597 738
345 3581 986
331 3576 1240
310 3582 1514
258 3570 1779
41 3572 2047
79 3567 2287
42 3573 2533
66 3570 2768
58 3571 3009
78 3564 3233
77 3554 3452
79 3548 3667
77 3549 3884
214 3550 4094
223 3825 614
214 3823 652
195 3814 791
246 3801 1009
306 3794 1271
305 3794 1537
276 3794 1800
91 3792 2063
34 3792 2314
44 3791 2552
40 3793 2788
58 3792 3024
37 3792 3260
59 3786 3482
56 3783 3702
34 3781 3913
460 3769 4095
188 4028 645
179 4026 680
127 4019 812
132 4009 1026
210 4003 1297
207 4002 1563
216 4002 1825
144 4001 2080
16 4001 2338
114 3999 2575
105 4000 2807
108 4001 3040
129 4001 3275
72 4002 3505
95 4000 3725
78 4004 3944
695 3976 4095
256 0 0
256 0 256
258 2 765
160 3 954
0 59 1195
57 71 1452
54 153 1719
5 226 1980
9 284 2237
7 343 2482
3 402 2713
6 456 2940
8 488 3166
12 498 3394
119 510 3627
119 550 3867
233 595 4095
256 256 0
256 256 256
256 256 512
41 216 902
29 237 1155
49 248 1428
33 275 1702
5 310 1971
10 351 2230
8 397 2477
4 446 2709
7 492 2937
8 522 3165
11 530 3392
127 540 3624
127 578 3866
224 621 4095
49 545 46
256 512 256
256 512 512
2 515 812
6 510 1096
37 508 1378
13 513 1665
5 525 1948
9 540 2208
9 563 2457
6 590 2696
8 620 2926
9 641 3158
12 646 3386
115 655 3622
116 682 3864
224 720 4095
69 800 47
60 800 0
2 792 466
82 781 815
4 771 1083
4 776 1370
9 774 1654
5 771 1929
3 771 2183
9 779 2433
11 793 2675
9 811 2912
10 824 3148
14 826 3382
93 832 3622
106 849 3863
266 880 4095
91 1047 81
91 1048 81
76 1038 473
41 1031 780
78 1022 1075
6 1017 1346
7 1015 1625
5 1019 1909
8 1020 2175
9 1020 2418
11 1027 2661
11 1039 2903
9 1048 3144
11 1044 3379
104 1041 3622
59 1054 3861
188 1068 4095
49 1334 98
49 1335 97
3 1316 475
2 1296 777
7 1285 1057
40 1277 1331
6 1277 1617
7 1276 1896
9 1278 2160
10 1279 2415
11 1282 2657
11 1287 2898
12 1289 3138
13 1288 3377
16 1286 3616
7 1285 3854
16 1289 4087
66 1638 52
66 1639 52
2 1595 496
3 1573 784
5 1553 1067
6 1547 1331
4 1546 1606
6 1541 1895
10 1538 2165
11 1537 2410
11 1541 2654
12 1547 2896
11 1552 3138
12 1546 3377
17 1540 3620
11 1538 3852
6 1539 4082
31 1898 46
1 1895 158
0 1868 523
3 1849 798
4 1830 1073
5 1815 1345
3 1810 1617
6 1807 1893
12 1803 2161
14 1801 2416
13 1801 2651
12 1803 2888
13 1804 3127
12 1805 3367
7 1807 3608
14 1808 3848
34 1810 4082
7 2150 70
7 2145 257
13 2124 569
13 2112 820
20 2104 1092
14 2084 1358
13 2073 1627
13 2066 1905
30 2062 2173
30 2063 2423
30 2063 2664
28 2063 2890
17 2067 3123
14 2064 3359
15 2063 3598
27 2070 3842
42 2079 4083
103 2390 188
89 2387 321
70 2373 567
58 2360 839
75 2351 1108
97 2341 1388
101 2329 1655
90 2323 1926
96 2321 2195
92 2319 2440
59 2317 2667
45 2318 2896
36 2318 3126
18 2321 3359
19 2324 3599
33 2330 3841
13 2338 4081
144 2630 290
145 2627 377
147 2615 595
147 2607 853
156 2595 1130
153 2589 1412
158 2581 1685
155 2576 1955
164 2574 2213
162 2573 2461
149 2570 2687
102 2569 2902
42 2571 3123
29 2570 3358
14 2576 3599
34 2583 3839
13 2593 4079
195 2878 369
195 2876 436
196 2869 632
202 2860 886
198 2847 1159
201 2835 1441
208 2828 1708
210 2823 1968
216 2822 2221
221 2821 2460
220 2819 2696
196 2816 2921
143 2816 3143
60 2820 3370
27 2824 3603
34 2833 3842
47 2844 4079
243 3121 456
240 3117 509
248 3113 681
253 3109 921
252 3100 1190
258 3082 1475
241 3076 1734
261 3068 1992
253 3069 2236
255 3069 2472
256 3067 2703
258 3062 2929
227 3061 3155
165 3064 3387
59 3070 3617
62 3076 3848
23 3088 4083
265 3374 508
258 3370 553
266 3357 716
298 3346 951
306 3344 1213
301 3334 1492
219 3328 1763
198 3323 2016
197 3321 2263
209 3322 2501
200 3322 2739
212 3318 2968
222 3310 3189
194 3307 3413
147 3308 3637
64 3314 3863
19 3323 4089
157 3611 547
136 3608 586
190 3597 738
345 3581 986
331 3576 1240
310 3582 1514
258 3570 1779
41 3573 2047
79 3567 2287
42 3573 2533
66 3570 2768
58 3571 3009
78 3564 3233
77 3554 3452
79 3548 3667
77 3549 3884
214 3550 4094
223 3825 614
214 3823 652
195 3814 791
247 3801 1009
306 3794 1271
305 3794 1537
276 3794 1800
91 3792 2063
34 3792 2314
44 3791 2552
40 3793 2788
58 3792 3024
37 3792 3260
59 3786 3482
56 3783 3702
34 3781 3913
460 3769 4095
188 4028 645
179 4026 680
127 4019 812
132 4009 1026
210 4003 1297
207 4002 1563
216 4002 1825
144 4001 2080
16 4001 2338
114 3999 2575
105 4000 2807
108 4001 3040
129 4001 3275
72 4002 3505
95 4000 3725
78 4004 3944
695 3976 4095
640 0 138
629 0 347
601 1 621
555 6 900
506 2 1158
465 3 1411
426 154 1668
347 224 1957
218 284 2228
7 343 2479
3 402 2711
7 456 2939
8 489 3165
12 499 3393
119 510 3626
120 551 3866
225 595 4095
562 200 10
512 256 256
512 256 512
537 192 852
506 226 1111
471 243 1378
422 276 1660
342 312 1949
217 352 2222
7 397 2474
4 446 2708
7 493 2936
8 522 3164
11 531 3391
127 540 3624
127 578 3865
217 621 4095
491 515 64
512 512 256
512 512 512
512 512 768
467 518 1082
443 512 1354
403 516 1632
321 524 1922
185 538 2201
9 563 2455
7 590 2694
8 620 2925
9 642 3157
12 646 3385
114 655 3622
117 682 3863
221 720 4095
441 797 86
504 796 4
512 768 512
512 768 768
436 768 1066
402 760 1339
363 759 1620
293 761 1903
133 767 2178
9 779 2432
11 793 2674
9 811 2912
10 824 3148
14 826 3381
93 832 3621
106 849 3863
264 880 4095
462 1051 74
461 1051 74
458 1037 502
432 1030 778
418 1018 1047
383 1016 1334
341 1010 1605
258 1016 1899
8 1020 2174
9 1020 2418
11 1027 2661
11 1039 2902
9 1048 3143
11 1044 3379
105 1041 3622
59 1054 3861
184 1068 4095
415 1331 103
414 1331 103
414 1307 478
396 1290 774
379 1282 1052
349 1276 1326
295 1273 1609
192 1272 1889
9 1278 2160
10 1279 2415
11 1282 2657
11 1287 2898
12 1289 3138
13 1288 3377
16 1286 3616
8 1285 3854
16 1289 4087
396 1623 2
394 1624 2
376 1582 500
357 1565 779
331 1547 1057
297 1543 1325
243 1540 1598
10 1540 1893
10 1538 2165
11 1537 2410
11 1541 2654
12 1547 2896
11 1552 3138
12 1546 3377
17 1540 3620
11 1538 3852
6 1539 4082
351 1893 4
330 1890 154
328 1860 520
311 1843 793
276 1826 1070
226 1810 1340
98 1806 1610
6 1807 1893
12 1803 2161
14 1801 2416
13 1801 2651
12 1803 2888
13 1804 3127
12 1806 3367
7 1807 3608
14 1808 3848
34 1810 4082
281 2148 76
281 2143 265
254 2121 565
234 2110 821
201 2101 1092
74 2083 1358
13 2073 1627
13 2066 1905
30 2062 2173
30 2063 2423
30 2063 2664
28 2063 2890
17 2067 3123
14 2064 3359
15 2063 3598
27 2070 3842
42 2079 4082
185 2390 194
172 2386 323
137 2373 569
58 2360 840
76 2351 1108
97 2341 1389
101 2329 1655
90 2323 1926
96 2321 2195
92 2319 2440
59 2317 2667
45 2318 2896
36 2318 3126
18 2321 3359
19 2324 3599
33 2330 3841
13 2338 4081
144 2630 292
145 2627 378
147 2615 596
147 2607 854
156 2596 1130
153 2589 1412
158 2581 1685
155 2576 1955
164 2574 2213
162 2573 2461
149 2570 2687
102 2569 2903
42 2571 3123
29 2570 3358
14 2576 3599
34 2583 3839
13 2593 4079
195 2878 370
195 2876 437
196 2869 632
202 2860 886
198 2847 1159
201 2835 1441
208 2828 1708
210 2823 1968
216 2822 2221
221 2821 2460
220 2819 2696
196 2816 2921
143 2816 3143
60 2820 3370
27 2824 3603
34 2833 3842
47 2844 4079
243 3120 457
240 3117 510
248 3113 681
253 3109 922
252 3100 1190
258 3082 1475
241 3076 1735
261 3068 1992
253 3069 2236
255 3069 2472
256 3067 2703
258 3062 2929
227 3061 3155
165 3064 3387
59 3070 3617
62 3077 3848
23 3088 4083
264 3374 509
258 3370 554
266 3357 717
298 3346 951
306 3344 1213
301 3334 1492
219 3328 1763
198 3323 2016
197 3321 2263
209 3322 2501
200 3323 2739
212 3318 2968
222 3310 3189
194 3307 3413
147 3309 3637
64 3314 3863
19 3323 4089
157 3611 547
136 3608 586
190 3597 738
345 3581 986
331 3577 1240
310 3582 1514
258 3570 1779
41 3573 2047
79 3567 2287
42 3573 2533
66 3570 2768
58 3571 3009
78 3564 3233
77 3554 3452
79 3548 3667
77 3549 3884
214 3550 4094
222 3825 615
214 3823 653
195 3814 792
247 3801 1010
306 3794 1272
305 3794 1537
276 3794 1800
91 3792 2063
34 3792 2314
44 3791 2552
40 3793 2789
58 3792 3024
37 3792 3260
59 3787 3482
56 3783 3702
34 3781 3913
460 3769 4095
188 4028 646
179 4026 681
127 4019 813
132 4009 1027
210 4004 1297
207 4002 1563
216 4002 1825
144 4001 2080
16 4001 2338
114 3999 2575
105 4000 2807
108 4001 3040
129 4001 3275
72 4002 3505
96 4000 3725
78 4004 3944
695 3976 4095
881 0 223
871 0 330
840 1 646
833 1 875
806 6 1136
807 8 1363
774 118 1631
739 221 1900
705 295 2181
658 347 2437
596 396 2678
506 443 2908
374 487 3144
127 498 3389
119 511 3625
121 551 3865
211 595 4095
847 163 37
860 159 223
860 148 486
858 177 786
822 206 1076
792 247 1340
769 279 1613
736 318 1891
701 365 2174
655 400 2432
593 440 2675
504 481 2906
366 521 3141
124 530 3387
128 540 3622
128 579 3864
