3dlsample2.3dl
#filename:  LG0_05112022_035205PM.3dl
#created:   05/11/2022 03:52:05 PM
#owner:     CalMAN 5 (22.2.15.847, 05/11/2022 03:52:05 PM, LG, 6)
#title:     17x17x17 3D LUT
0 128 256 384 512 640 768 896 1023
0 0 0
27 11 847
2 57 1210
51 153 1723
9 284 2238
3 402 2714
8 488 3167
119 510 3627
234 595 4095
50 548 38
6 520 510
9 511 1098
12 513 1666
9 540 2209
6 590 2696
9 641 3158
115 655 3622
225 720 4095
91 1048 81
76 1039 472
78 1022 1075
7 1015 1625
8 1020 2175
11 1027 2661
9 1048 3144
104 1041 3623
189 1068 4095
66 1638 52
2 1595 496
5 1553 1067
4 1546 1606
10 1538 2165
11 1541 2654
11 1552 3138
17 1540 3620
6 1539 4082
7 2150 70
13 2124 569
20 2104 1092
13 2073 1627
30 2062 2173
30 2063 2664
17 2067 3123
15 2063 3598
42 2079 4083
144 2630 290
147 2615 595
156 2595 1130
158 2581 1685
164 2574 2213
149 2570 2687
42 2571 3123
14 2576 3599
13 2593 4079
243 3121 455
248 3113 681
252 3100 1190
241 3076 1734
253 3069 2236
256 3067 2703
227 3061 3155
59 3070 3617
23 3088 4083
157 3611 546
190 3597 738
331 3576 1240
258 3570 1779
79 3567 2287
66 3570 2768
78 3564 3233
79 3548 3667
214 3550 4094
188 4028 645
127 4019 812
210 4003 1297
216 4002 1825
16 4001 2338
105 4000 2807
129 4001 3275
95 4000 3725
695 3976 4095
640 0 138
601 1 621
506 2 1158
426 154 1668
218 284 2228
3 402 2711
8 489 3165
119 510 3626
225 595 4095
491 515 64
512 512 512
467 518 1082
403 516 1632
185 538 2201
7 590 2694
9 642 3157
114 655 3622
221 720 4095
462 1051 74
458 1037 502
418 1018 1047
341 1010 1605
8 1020 2174
11 1027 2661
9 1048 3143
105 1041 3622
184 1068 4095
396 1623 2
376 1582 500
331 1547 1057
243 1540 1598
10 1538 2165
11 1541 2654
11 1552 3138
17 1540 3620
6 1539 4082
281 2148 76
254 2121 565
201 2101 1092
13 2073 1627
30 2062 2173
30 2063 2664
17 2067 3123
15 2063 3598
42 2079 4082
144 2630 292
147 2615 596
156 2596 1130
158 2581 1685
164 2574 2213
149 2570 2687
42 2571 3123
14 2576 3599
13 2593 4079
243 3120 457
248 3113 681
252 3100 1190
241 3076 1735
253 3069 2236
256 3067 2703
227 3061 3155
59 3070 3617
23 3088 4083
157 3611 547
190 3597 738
331 3577 1240
258 3570 1779
79 3567 2287
66 3570 2768
78 3564 3233
79 3548 3667
214 3550 4094
188 4028 646
127 4019 813
210 4004 1297
216 4002 1825
16 4001 2338
105 4000 2807
129 4001 3275
96 4000 3725
695 3976 4095
1124 2 137
1140 1 542
1126 23 1030
1091 150 1593
1036 299 2142
969 402 2641
895 494 3098
801 528 3592
596 602 4087
1080 512 116
1100 497 475
1068 501 1010
1031 512 1561
1012 544 2119
955 593 2627
883 642 3095
793 669 3591
583 723 4088
1030 1044 73
1045 1030 464
1024 1024 1024
982 1014 1551
975 1021 2111
914 1032 2606
844 1044 3086
757 1051 3588
554 1071 4079
994 1593 3
996 1567 496
981 1540 1033
942 1521 1542
926 1519 2104
880 1522 2600
812 1527 3077
702 1529 3580
503 1538 4072
955 2126 75
948 2103 549
932 2081 1051
910 2058 1583
891 2054 2132
847 2044 2615
734 2049 3071
629 2041 3569
383 2074 4075
912 2618 311
904 2600 600
881 2575 1101
864 2567 1646
848 2561 2174
813 2562 2664
692 2556 3089
551 2567 3579
65 2592 4079
835 3096 452
843 3096 671
829 3086 1160
808 3069 1708
789 3065 2215
725 3060 2680
640 3055 3139
413 3061 3598
23 3089 4083
707 3600 541
738 3590 737
766 3572 1221
724 3565 1760
659 3563 2271
589 3567 2754
476 3562 3226
79 3549 3667
216 3550 4094
648 4027 645
646 4019 806
653 4004 1287
621 4003 1819
537 4000 2330
435 4000 2805
129 4001 3275
96 4000 3725
697 3976 4095
1716 0 225
1715 0 595
1694 3 1031
1649 133 1534
1631 295 2101
1597 399 2589
1545 494 3069
1534 549 3550
1482 618 4041
1666 502 2
1646 499 430
1646 499 996
1619 516 1522
1592 554 2086
1575 597 2581
1538 648 3065
1522 686 3543
1472 736 4035
1621 1053 3
1606 1049 477
1602 1027 1005
1570 1010 1504
1546 1021 2045
1545 1035 2575
1511 1058 3058
1491 1069 3538
1442 1087 4026
1584 1582 30
1557 1567 499
1562 1536 995
1536 1536 1536
1509 1522 2057
1508 1524 2571
1472 1539 3045
1451 1523 3534
1397 1542 4025
1535 2121 72
1540 2100 536
1511 2066 1024
1485 2053 1532
1486 2037 2083
1461 2034 2556
1447 2041 3042
1412 2044 3543
1357 2060 4027
1498 2606 322
1498 2584 587
1476 2566 1071
1462 2561 1596
1458 2552 2116
1437 2556 2606
1414 2541 3045
1366 2556 3529
1320 2576 4033
1463 3099 456
1458 3087 657
1440 3071 1119
1421 3058 1656
1414 3053 2163
1389 3049 2636
1362 3050 3107
1325 3046 3546
1270 3067 4037
1368 3593 520
1380 3583 715
1383 3566 1178
1363 3559 1712
1349 3555 2222
1326 3557 2703
1300 3548 3165
1275 3540 3621
1198 3546 4059
1329 4024 642
1323 4019 805
1329 4006 1253
1314 4003 1783
1297 4000 2293
1276 4000 2773
1243 4000 3237
1202 4000 3689
1187 3991 4095
2257 24 193
2246 1 677
2238 4 1032
2188 119 1494
2184 288 2053
2141 397 2573
2115 503 3044
2113 555 3538
2098 631 4019
2206 493 3
2198 510 445
2191 509 970
2169 528 1509
2161 557 2050
2126 599 2558
2103 663 3038
2101 696 3533
2088 749 4016
2168 1071 6
2160 1071 469
2141 1043 968
2127 1035 1510
2125 1036 2053
2101 1056 2536
2078 1081 3030
2079 1087 3529
2065 1104 4014
2129 1604 57
2112 1593 491
2115 1571 993
2102 1557 1505
2100 1539 2058
2075 1544 2544
2045 1550 3024
2043 1546 3515
2037 1558 4005
2102 2136 190
2099 2103 542
2069 2081 1004
2082 2055 1541
2048 2048 2048
2024 2045 2552
2030 2056 3024
2010 2060 3518
2002 2056 4000
2070 2601 341
2068 2586 574
2055 2569 1037
2050 2557 1591
2034 2556 2107
1999 2542 2556
1995 2542 3019
1980 2550 3508
1963 2571 4003
2053 3095 452
2042 3085 642
2023 3066 1092
2004 3055 1622
2005 3051 2143
1975 3045 2602
1978 3039 3069
1962 3043 3530
1932 3060 4010
2007 3590 495
1995 3584 686
1985 3571 1139
1965 3559 1672
1962 3555 2181
1941 3547 2663
1933 3542 3135
1920 3539 3570
1906 3542 4028
1951 4021 619
1948 4017 772
1942 4007 1212
1931 4004 1739
1913 4000 2247
1900 3999 2732
1888 3998 3196
1869 3997 3642
1856 3998 4091
2742 20 165
2741 2 642
2733 5 972
2712 172 1465
2682 310 2035
2676 417 2538
2635 516 3036
2631 573 3514
2631 642 3998
2722 508 6
2715 524 454
2713 525 944
2695 536 1474
2664 568 2018
2662 620 2535
2626 676 3029
2619 713 3505
2622 761 3992
2683 1090 63
2681 1085 466
2665 1072 940
2668 1062 1484
2646 1066 2019
2637 1076 2529
2604 1092 3018
2589 1105 3496
2598 1122 3979
2670 1642 80
2661 1628 509
2643 1603 966
2635 1579 1480
2613 1567 2022
2609 1564 2533
2594 1579 3010
2574 1584 3491
2584 1589 3979
2637 2153 243
2628 2141 541
2624 2115 997
2614 2099 1519
2612 2084 2054
2584 2071 2525
2559 2079 3012
2559 2082 3490
2555 2086 3975
2617 2613 373
2599 2606 589
2599 2576 1022
2575 2570 1556
2589 2557 2074
2560 2560 2560
2532 2564 3020
2534 2566 3491
2530 2585 3980
2577 3084 477
2575 3083 642
2575 3067 1058
2562 3058 1610
2567 3057 2122
2544 3048 2597
2506 3036 3026
2506 3040 3497
2503 3050 3985
2570 3600 528
2565 3590 685
2564 3572 1110
2540 3556 1646
2527 3553 2157
2522 3547 2655
2501 3546 3110
2505 3539 3565
2502 3540 4006
2540 4023 610
2539 4019 757
2527 4010 1175
2516 4005 1701
2499 4002 2205
2486 3999 2698
2478 3998 3170
2467 3997 3613
2468 3996 4072
3240 10 99
3242 13 479
3224 23 899
3217 245 1433
3205 351 1999
3183 455 2532
3176 544 3025
3155 583 3512
3146 653 3979
3214 533 82
3218 553 459
3215 553 913
3211 569 1448
3198 596 1992
3175 651 2526
3168 704 3024
3148 727 3506
3136 773 3975
3195 1123 95
3199 1118 470
3192 1097 921
3188 1095 1454
3174 1087 1992
3152 1103 2506
3147 1118 3014
3130 1125 3501
3112 1142 3973
3179 1672 196
3177 1655 493
3168 1632 937
3159 1621 1450
3154 1607 2006
3141 1607 2518
3134 1613 3014
3118 1607 3494
3098 1611 3965
3167 2193 299
3163 2185 552
3153 2154 968
3144 2135 1488
3133 2130 2015
3134 2120 2530
3111 2126 3012
3103 2121 3491
3092 2125 3963
3141 2666 390
3135 2658 578
3122 2640 1001
3123 2624 1543
3111 2621 2070
3109 2613 2561
3086 2605 3015
3066 2609 3485
3058 2620 3962
3131 3117 475
3119 3113 636
3098 3108 1037
3099 3073 1589
3081 3075 2100
3093 3064 2572
3072 3072 3072
3042 3068 3505
3041 3070 3973
3089 3589 497
3087 3585 663
3075 3570 1078
3082 3562 1616
3072 3561 2145
3065 3552 2641
3052 3550 3124
3018 3540 3537
3022 3535 3991
3084 4026 595
3081 4022 731
3069 4013 1136
3060 4008 1667
3052 4006 2176
3041 4003 2681
3031 4002 3164
3021 3999 3608
3012 3994 4052
3723 246 133
3711 266 463
3693 262 866
3683 331 1391
3690 408 1962
3675 505 2503
3661 582 3030
3662 603 3509
3644 672 3980
3705 585 153
3699 599 470
3690 595 878
3679 607 1396
3687 634 1957
3673 690 2500
3659 738 3031
3659 748 3507
3641 792 3974
3689 1154 204
3681 1147 482
3679 1127 893
3672 1120 1404
3675 1120 1959
3662 1133 2491
3650 1153 3019
3647 1150 3504
3632 1169 3970
3672 1700 256
3668 1693 498
3672 1675 911
3666 1658 1418
3654 1647 1964
3649 1640 2498
3635 1648 3002
3635 1642 3492
3625 1646 3967
3654 2229 333
3658 2221 540
3653 2201 941
3657 2180 1454
3650 2169 1984
3644 2171 2508
3637 2169 3021
3623 2167 3499
3616 2166 3968
3645 2723 410
3648 2714 585
3642 2697 978
3645 2681 1500
3635 2672 2025
3621 2670 2535
3620 2662 3028
3607 2664 3493
3589 2679 3965
3640 3180 489
3637 3168 638
3623 3150 1003
3617 3144 1543
3623 3139 2071
3613 3133 2584
3617 3126 3072
3593 3116 3509
3568 3120 3968
3633 3624 532
3633 3618 669
3628 3608 1035
3608 3606 1582
3608 3584 2102
3587 3585 2631
3599 3575 3120
3584 3584 3584
3552 3578 3997
3601 4036 590
3600 4033 715
3596 4026 1094
3589 4024 1634
3580 4021 2147
3576 4020 2669
3566 4019 3169
3551 4012 3607
3548 4010 4044
4095 418 388
4095 401 508
4090 363 836
4086 392 1345
4094 456 1924
4090 540 2476
4094 621 3004
4094 599 3507
4092 649 3978
4095 638 232
4095 658 483
4094 612 850
4090 624 1346
4095 663 1921
4091 709 2466
4095 788 3005
4095 744 3504
4091 780 3976
4090 1182 241
4094 1167 474
4095 1162 884
4095 1141 1356
4095 1139 1918
4092 1152 2450
4095 1197 2999
4095 1176 3500
4093 1178 3977
4093 1732 280
4093 1723 494
4095 1718 921
4095 1693 1393
4093 1667 1917
4095 1667 2462
4088 1674 2984
4093 1666 3481
4093 1670 3973
4094 2266 335
4091 2254 508
4091 2236 892
4095 2212 1412
4095 2202 1948
4095 2206 2489
4094 2189 2991
4094 2187 3484
4095 2204 3965
4086 2768 399
4088 2759 557
4088 2737 920
4092 2720 1444
4095 2707 1990
4094 2714 2488
4092 2701 2997
4093 2703 3497
4086 2723 3968
4095 3231 438
4091 3219 590
4086 3204 947
4095 3196 1469
4094 3188 2026
4095 3193 2541
4095 3179 3043
4088 3170 3514
4077 3174 3978
4094 3694 529
4094 3687 660
4090 3670 1000
4088 3646 1522
4092 3650 2043
4087 3649 2587
4088 3640 3122
4079 3642 3565
4064 3633 4014
4095 4088 556
4095 4087 751
4095 4082 1184
4095 4074 1644
4089 4069 2114
4084 4068 2642
4083 4070 3168
4081 4065 3620
4095 4095 4095
